resources/devtools/sources/preact.svg

<!-- This Source Code Form is subject to the terms of the Mozilla Public
   - License, v. 2.0. If a copy of the MPL was not distributed with this
   - file, You can obtain one at http://mozilla.org/MPL/2.0/. -->
<svg width="256px" height="296px" viewBox="0 0 256 296" version="1.1" xmlns="http://www.w3.org/2000/svg" preserveAspectRatio="xMidYMid">
	<g>
		<polygon fill="#673AB8" points="128 0 256 73.8999491 256 221.699847 128 295.599796 0 221.699847 0 73.8999491"></polygon>
		<path d="M34.8647584,220.478469 C51.8814262,242.25881 105.959701,225.662965 157.014868,185.774297 C208.070035,145.885628 237.255632,97.428608 220.238964,75.6482664 C203.222296,53.8679249 149.144022,70.4637701 98.0888543,110.352439 C47.0336869,150.241107 17.8480906,198.698127 34.8647584,220.478469 Z M42.1343351,214.798853 C36.4908625,207.575537 38.9565723,193.395881 49.7081913,175.544904 C61.0297348,156.747677 80.2490923,135.997367 103.76847,117.622015 C127.287848,99.2466634 152.071368,85.6181573 173.049166,79.1803727 C192.970945,73.066665 207.325915,74.1045667 212.969387,81.3278822 C218.61286,88.5511977 216.14715,102.730854 205.395531,120.581832 C194.073987,139.379058 174.85463,160.129368 151.335252,178.50472 C127.815874,196.880072 103.032354,210.508578 82.054556,216.946362 C62.1327769,223.06007 47.7778077,222.022168 42.1343351,214.798853 Z" fill="#FFFFFF"></path>
		<path d="M220.238964,220.478469 C237.255632,198.698127 208.070035,150.241107 157.014868,110.352439 C105.959701,70.4637701 51.8814262,53.8679249 34.8647584,75.6482664 C17.8480906,97.428608 47.0336869,145.885628 98.0888543,185.774297 C149.144022,225.662965 203.222296,242.25881 220.238964,220.478469 Z M212.969387,214.798853 C207.325915,222.022168 192.970945,223.06007 173.049166,216.946362 C152.071368,210.508578 127.287848,196.880072 103.76847,178.50472 C80.2490923,160.129368 61.0297348,139.379058 49.7081913,120.581832 C38.9565723,102.730854 36.4908625,88.5511977 42.1343351,81.3278822 C47.7778077,74.1045667 62.1327769,73.066665 82.054556,79.1803727 C103.032354,85.6181573 127.815874,99.2466634 151.335252,117.622015 C174.85463,135.997367 194.073987,156.747677 205.395531,175.544904 C216.14715,193.395881 218.61286,207.575537 212.969387,214.798853 Z" fill="#FFFFFF"></path>
		<path d="M127.551861,167.666971 C138.378632,167.666971 147.155465,158.890139 147.155465,148.063368 C147.155465,137.236596 138.378632,128.459764 127.551861,128.459764 C116.72509,128.459764 107.948257,137.236596 107.948257,148.063368 C107.948257,158.890139 116.72509,167.666971 127.551861,167.666971 L127.551861,167.666971 Z" fill="#FFFFFF"></path>
	</g>
</svg>

<svg width="256" height="296" preserveAspectRatio="xMidYMid">
  <path fill="#673AB8" d="m128 0 128 73.9v147.8l-128 73.9L0 221.7V73.9z"/>
  <path fill="#f4f4f7" d="M34.865 220.478c17.016 21.78 71.095 5.185 122.15-34.704 51.055-39.888 80.24-88.345 63.224-110.126-17.017-21.78-71.095-5.184-122.15 34.704-51.055 39.89-80.24 88.346-63.224 110.126Zm7.27-5.68c-5.644-7.222-3.178-21.402 7.573-39.253 11.322-18.797 30.541-39.548 54.06-57.923 23.52-18.375 48.303-32.004 69.281-38.442 19.922-6.113 34.277-5.075 39.92 2.148 5.644 7.223 3.178 21.403-7.573 39.254-11.322 18.797-30.541 39.547-54.06 57.923-23.52 18.375-48.304 32.004-69.281 38.441-19.922 6.114-34.277 5.076-39.92-2.147Z"/>
  <path fill="#f4f4f7" d="M220.239 220.478c17.017-21.78-12.169-70.237-63.224-110.126C105.96 70.464 51.88 53.868 34.865 75.648c-17.017 21.78 12.169 70.238 63.224 110.126 51.055 39.889 105.133 56.485 122.15 34.704Zm-7.27-5.68c-5.643 7.224-19.998 8.262-39.92 2.148-20.978-6.437-45.761-20.066-69.28-38.441-23.52-18.376-42.74-39.126-54.06-57.923-10.752-17.851-13.218-32.03-7.575-39.254 5.644-7.223 19.999-8.261 39.92-2.148 20.978 6.438 45.762 20.067 69.281 38.442 23.52 18.375 42.739 39.126 54.06 57.923 10.752 17.85 13.218 32.03 7.574 39.254Z"/>
  <path fill="#f4f4f7" d="M127.552 167.667c10.827 0 19.603-8.777 19.603-19.604 0-10.826-8.776-19.603-19.603-19.603-10.827 0-19.604 8.777-19.604 19.603 0 10.827 8.777 19.604 19.604 19.604Z"/>
</svg>
